X: 37584
T: Smiler
R: slip jig
M: 9/8
K: Amajor
|:AEF A2 E EFA|cee e2 c def|fec B2 A ABc|BAF EcB A3:|
|:B3 BAB ecB|A3 AEF ABc|d3 def fec|BAF EcB A3:|

